X:1
T:Title
%%score { 1 | 2 }
L:1/8
M:3/4
K:F
V:1 treble nm="Grand Piano"
V:2 bass 
V:1
 z2 z2[Q:1/4=100] CC | F2 F2 F[CEG] | [CFA]2 [CFA]2 AB | c3 c [GB][FA] |[M:2/4] [EG]4 | %5
[M:1/4] [FA][EG] |[M:3/4] F2 F2 [EG][EG] | [FA]2 [Fc]2 [FB][Fd] | [Fc]3 [A,CF] [B,EG][CEA] | %9
[M:2/4] [A,F]4 |[M:1/4] [EG][EG] |[M:3/4] [Ec]2 [EG]2 [FA][GB] | [GB]2 [FA]2 [GA][GA] | %13
 [^Fd]3 [FA] =BB |[M:2/4] [Ec]4 |[M:1/4] [Ec][Ed] |[M:3/4] c2 A2 AB | A2 F2 [Fd][Fd] | %18
 [Fc]3 [A,CF] [B,EG][CEA] |[M:2/4] [A,F]4 |] %20
V:2
 z2 z2 [F,A,][F,A,] | [F,A,C]2 [F,A,C]2 [F,A,C]C, | F,,2 F,,2 [F,C][F,G,C] | %3
 [F,A,F]3 [F,A,F] [E,C][F,C] |[M:2/4] [C,C]4 |[M:1/4] [C,C][C,B,] | %6
[M:3/4] [D,A,]2 [D,A,D]2 [C,C][C,C] | [F,C]2 [F,A,]2 [D,B,][B,,B,] | [C,A,]3 C, C,C, |[M:2/4] F,4 | %10
[M:1/4] [C,C][C,C] |[M:3/4] [C,G,]2 [C,C]2 [C,C][C,C] | [F,C]2 [F,C]2 [E,^C][E,C] | %13
 [D,D]3 [D,D][K:treble] [G,DG][G,F] |[M:2/4][K:bass] [C,G,]4 |[M:1/4] [C,B,][C,B,] | %16
[M:3/4] [F,A,F]2 [F,CF]2 [F,C][F,D] | [F,C]2 [F,A,C]2 [B,,B,][B,,B,] | [C,A,]3 C, C,C, | %19
[M:2/4] F,4 |] %20

